X:1
T:Title
%%score { ( 1 3 ) | ( 2 4 ) }
L:1/8
M:4/4
K:Ab
V:1 treble nm="Grand Piano"
V:3 treble 
V:2 bass 
V:4 bass 
V:1
 z4 z2[Q:1/4=100] [CA][DB] | [Ec][Ec][=D_c][E=c] [Fd][Ec][_DB][CA] | [EG]2 [DF]4 [DF][EF] | %3
 [DF][DB][DB][Ec] [Fd][Fd][B,FB][_CFA] | [B,EG]6 [A,EA][EB] | %5
 [Ec][Ec][=D_c][E=c] [_Ge][Ge][Fd][Fc] | [Fd]2 F4 GF | EABc [Fd][DF] [B,EG]>[G,DE] | %8
[M:3/4] [A,CA]6 |[M:1/4] CD |[M:4/4] z c3- c2 z2 | A4[K:bass] z4[K:treble] | z d3- d2 z2 | %13
 [Ac]6 cd | eefe c2 BA |[M:9/8] [FA][Fd][Fd] [Fd] [Fd]2- [Fd][F=d][Fd] | %16
[M:4/4] [Ge][Gf][Ge][Ac] BA c>B |[M:3/4] A6 |] %18
V:2
 z4 z2 [A,,A,][A,,A,] | [A,,A,][A,,A,][A,,A,][A,,A,] [A,,A,][A,,A,][A,,A,][A,,A,] | %2
 [D,A,]2 [D,A,]4 [D,A,][C,=A,] | [B,,B,][B,,B,][B,,B,][B,,B,] [B,,B,][B,,B,]D,=D, | %4
 E,4- E,D,C,[B,,G,] | [A,,A,][A,,A,][A,,A,][A,,A,] [A,,A,][A,,A,][B,,A,][C,A,] | %6
 [B,,A,]2 [D,A,D]4 [=D,A,_C][D,A,C] | [E,A,C][E,A,C][E,A,D][E,A,E] [B,,B,][B,,B,] E,>E, | %8
[M:3/4] A,,6 |[M:1/4] A,B, |[M:4/4] C E3- E2 [E,G,D]>[E,G,E] | C6 z2 | z E3- E2 z2 | %13
 A,A,A,A, A,2[K:treble] [A,A][A,B,A] | [A,CA][A,CA][A,DA][A,CA] [A,EA]2 [A,E_G][A,EG] | %15
[M:9/8][K:bass] [D,D][D,A,][D,A,] [D,A,] [D,A,]2- [D,A,][B,,B,][B,,B,] | %16
[M:4/4] [E,B,][E,B,][E,B,][E,E] [E,DE][E,CE] [E,A,E]>[E,G,D] |[M:3/4] E,2 z2 z2 |] %18
V:3
 x8 | x8 | x8 | x8 | x8 | x8 | x8 | x8 |[M:3/4] x6 |[M:1/4] x2 |[M:4/4] .E2 A,A, A,A, B>c | %11
 z[K:bass] A,A,A, E2 E[K:treble]F | .E2 G,G, G,B, e>[Gd] | x8 | x8 |[M:9/8] x9 |[M:4/4] x8 | %17
[M:3/4] C2 DD C2 |] %18
V:4
 x8 | x8 | x8 | x8 | x8 | x8 | x8 | x8 |[M:3/4] x6 |[M:1/4] x2 |[M:4/4] x8 | %11
 .A,2 E,C, [A,,A,]2 DD | .D2 E,E, E,E, [E,CE]>[E,B,] | x6[K:treble] x2 | x8 |[M:9/8][K:bass] x9 | %16
[M:4/4] x8 |[M:3/4] A,,2- [A,,-F,][A,,-F,] [A,,E,]2 |] %18

